x-pack/platform/plugins/shared/content_connectors/public/assets/icons/zoom.svg

<svg width="64" height="64" viewBox="0 0 64 64" fill="none" xmlns="http://www.w3.org/2000/svg">
<g clip-path="url(#clip0_720_81325)">
<path d="M0 21.12C0 9.45574 9.45575 0 21.12 0H42.88C54.5443 0 64 9.45575 64 21.12V42.88C64 54.5443 54.5443 64 42.88 64H21.12C9.45574 64 0 54.5443 0 42.88V21.12Z" fill="url(#paint0_linear_720_81325)"/>
<path d="M14.2082 24.32C14.2082 23.0475 15.2397 22.016 16.5122 22.016H33.7282C37.1214 22.016 39.8722 24.7668 39.8722 28.16V39.68C39.8722 40.9525 38.8406 41.984 37.5682 41.984H20.3522C16.9589 41.984 14.2082 39.2332 14.2082 35.84V24.32Z" fill="white"/>
<path d="M41.2162 29.4617C41.2162 28.3191 41.7285 27.2229 42.6079 26.4934C44.4839 24.937 45.8744 23.7834 46.9049 22.9284C48.5371 21.5743 49.8562 22.1992 49.8562 24.32V39.68C49.8562 41.8008 48.5371 42.4257 46.9049 41.0716C45.8744 40.2166 44.4839 39.063 42.6079 37.5066C41.7285 36.7771 41.2162 35.6809 41.2162 34.5383C41.2162 29.4617 41.2162 34.5383 41.2162 29.4617Z" fill="white"/>
</g>
<defs>
<linearGradient id="paint0_linear_720_81325" x1="32" y1="-70.4615" x2="32" y2="134.051" gradientUnits="userSpaceOnUse">
<stop stop-color="#57A2FF"/>
<stop offset="1" stop-color="#3C82FB"/>
</linearGradient>
<clipPath id="clip0_720_81325">
<rect width="64" height="64" fill="white"/>
</clipPath>
</defs>
</svg>

<svg xmlns="http://www.w3.org/2000/svg" width="64" height="64" fill="none"><g clip-path="url(#a)"><path fill="url(#b)" d="M0 21.12C0 9.456 9.456 0 21.12 0h21.76C54.544 0 64 9.456 64 21.12v21.76C64 54.544 54.544 64 42.88 64H21.12C9.456 64 0 54.544 0 42.88z"/><path fill="#fff" d="M14.208 24.32a2.304 2.304 0 0 1 2.304-2.304h17.216a6.144 6.144 0 0 1 6.144 6.144v11.52a2.304 2.304 0 0 1-2.304 2.304H20.352a6.144 6.144 0 0 1-6.144-6.144zM41.216 29.462a3.87 3.87 0 0 1 1.392-2.969l4.297-3.565c1.632-1.354 2.951-.729 2.951 1.392v15.36c0 2.12-1.319 2.746-2.951 1.392l-4.297-3.565a3.87 3.87 0 0 1-1.392-2.969z"/></g><defs><linearGradient id="b" x1="32" x2="32" y1="-70.462" y2="134.051" gradientUnits="userSpaceOnUse"><stop stop-color="#57A2FF"/><stop offset="1" stop-color="#3C82FB"/></linearGradient><clipPath id="a"><path fill="#fff" d="M0 0h64v64H0z"/></clipPath></defs></svg>
